static/img/kroki/87e10498aec3dd9ee27a36f08e4872b2.svg

<?xml version="1.0" encoding="us-ascii" standalone="no"?><svg xmlns="http://www.w3.org/2000/svg" xmlns:xlink="http://www.w3.org/1999/xlink" contentStyleType="text/css" height="793px" preserveAspectRatio="none" style="width:261px;height:793px;" version="1.1" viewBox="0 0 261 793" width="261px" zoomAndPan="magnify"><defs/><g><!--class aws_efs_mount_target--><g id="elem_aws_efs_mount_target"><rect codeLine="23" fill="#3D176E" height="152.9766" id="aws_efs_mount_target" rx="2.5" ry="2.5" style="stroke:#000D19;stroke-width:0.5;" width="247" x="7" y="633.84"/><ellipse cx="28.3" cy="653.7345" fill="#ADD1B2" rx="11" ry="11" style="stroke:#181818;stroke-width:1.0;"/><path d="M31.2688,659.3752 Q30.6906,659.672 30.05,659.8127 Q29.4094,659.9689 28.7063,659.9689 Q26.2063,659.9689 24.8781,658.3283 Q23.5656,656.672 23.5656,653.547 Q23.5656,650.422 24.8781,648.7658 Q26.2063,647.1095 28.7063,647.1095 Q29.4094,647.1095 30.05,647.2658 Q30.7063,647.422 31.2688,647.7189 L31.2688,650.4377 Q30.6438,649.8595 30.05,649.5939 Q29.4563,649.3127 28.8313,649.3127 Q27.4875,649.3127 26.8,650.3908 Q26.1125,651.4533 26.1125,653.547 Q26.1125,655.6408 26.8,656.7189 Q27.4875,657.7814 28.8313,657.7814 Q29.4563,657.7814 30.05,657.5158 Q30.6438,657.2345 31.2688,656.6564 L31.2688,659.3752 Z " fill="#000000"/><text fill="#D9B8FF" font-family="Helvetica" font-size="17" lengthAdjust="spacing" textLength="191" x="48.7" y="659.6198">aws_efs_mount_target</text><line style="stroke:#000D19;stroke-width:0.5;" x1="8" x2="253" y1="673.6291" y2="673.6291"/><text fill="#D9B8FF" font-family="sans-serif" font-size="14" font-weight="bold" lengthAdjust="spacing" textLength="177" x="18" y="695.6242">availability_zone_name</text><text fill="#D9B8FF" font-family="sans-serif" font-size="14" lengthAdjust="spacing" textLength="48" x="195" y="695.6242">: string</text><text fill="#D9B8FF" font-family="sans-serif" font-size="14" font-weight="bold" lengthAdjust="spacing" textLength="85" x="18" y="721.9211">ip_address</text><text fill="#D9B8FF" font-family="sans-serif" font-size="14" lengthAdjust="spacing" textLength="48" x="103" y="721.9211">: string</text><text fill="#D9B8FF" font-family="sans-serif" font-size="14" font-weight="bold" lengthAdjust="spacing" textLength="119" x="18" y="748.2179">life_cycle_state</text><text fill="#D9B8FF" font-family="sans-serif" font-size="14" lengthAdjust="spacing" textLength="48" x="137" y="748.2179">: string</text><text fill="#D9B8FF" font-family="sans-serif" font-size="14" font-weight="bold" lengthAdjust="spacing" textLength="72" x="18" y="774.5148">owner_id</text><text fill="#D9B8FF" font-family="sans-serif" font-size="14" lengthAdjust="spacing" textLength="48" x="90" y="774.5148">: string</text></g><!--class aws_resource--><g id="elem_aws_resource"><rect codeLine="29" fill="#3D176E" height="74.0859" id="aws_resource" rx="2.5" ry="2.5" style="stroke:#000D19;stroke-width:0.5;" width="155" x="53" y="438.76"/><ellipse cx="68" cy="458.6545" fill="#ADD1B2" rx="11" ry="11" style="stroke:#181818;stroke-width:1.0;"/><path d="M70.9688,464.2952 Q70.3906,464.592 69.75,464.7327 Q69.1094,464.8889 68.4063,464.8889 Q65.9063,464.8889 64.5781,463.2483 Q63.2656,461.592 63.2656,458.467 Q63.2656,455.342 64.5781,453.6858 Q65.9063,452.0295 68.4063,452.0295 Q69.1094,452.0295 69.75,452.1858 Q70.4063,452.342 70.9688,452.6389 L70.9688,455.3577 Q70.3438,454.7795 69.75,454.5139 Q69.1563,454.2327 68.5313,454.2327 Q67.1875,454.2327 66.5,455.3108 Q65.8125,456.3733 65.8125,458.467 Q65.8125,460.5608 66.5,461.6389 Q67.1875,462.7014 68.5313,462.7014 Q69.1563,462.7014 69.75,462.4358 Q70.3438,462.1545 70.9688,461.5764 L70.9688,464.2952 Z " fill="#000000"/><text fill="#D9B8FF" font-family="Helvetica" font-size="17" lengthAdjust="spacing" textLength="113" x="87" y="464.5398">aws_resource</text><line style="stroke:#000D19;stroke-width:0.5;" x1="54" x2="207" y1="478.5491" y2="478.5491"/><text fill="#D9B8FF" font-family="sans-serif" font-size="14" font-weight="bold" lengthAdjust="spacing" textLength="26" x="64" y="500.5442">arn</text><text fill="#D9B8FF" font-family="sans-serif" font-size="14" lengthAdjust="spacing" textLength="48" x="90" y="500.5442">: string</text></g><!--class resource--><g id="elem_resource"><rect codeLine="32" fill="#3D176E" height="310.7578" id="resource" rx="2.5" ry="2.5" style="stroke:#000D19;stroke-width:0.5;" width="227" x="17" y="7"/><ellipse cx="85.75" cy="26.8945" fill="#ADD1B2" rx="11" ry="11" style="stroke:#181818;stroke-width:1.0;"/><path d="M88.7188,32.5352 Q88.1406,32.832 87.5,32.9727 Q86.8594,33.1289 86.1563,33.1289 Q83.6563,33.1289 82.3281,31.4883 Q81.0156,29.832 81.0156,26.707 Q81.0156,23.582 82.3281,21.9258 Q83.6563,20.2695 86.1563,20.2695 Q86.8594,20.2695 87.5,20.4258 Q88.1563,20.582 88.7188,20.8789 L88.7188,23.5977 Q88.0938,23.0195 87.5,22.7539 Q86.9063,22.4727 86.2813,22.4727 Q84.9375,22.4727 84.25,23.5508 Q83.5625,24.6133 83.5625,26.707 Q83.5625,28.8008 84.25,29.8789 Q84.9375,30.9414 86.2813,30.9414 Q86.9063,30.9414 87.5,30.6758 Q88.0938,30.3945 88.7188,29.8164 L88.7188,32.5352 Z " fill="#000000"/><text fill="#D9B8FF" font-family="Helvetica" font-size="17" lengthAdjust="spacing" textLength="71" x="111.25" y="32.7798">resource</text><line style="stroke:#000D19;stroke-width:0.5;" x1="18" x2="243" y1="46.7891" y2="46.7891"/><text fill="#D9B8FF" font-family="sans-serif" font-size="14" font-weight="bold" lengthAdjust="spacing" textLength="29" x="28" y="68.7842">age</text><text fill="#D9B8FF" font-family="sans-serif" font-size="14" lengthAdjust="spacing" textLength="66" x="57" y="68.7842">: duration</text><text fill="#D9B8FF" font-family="sans-serif" font-size="14" font-weight="bold" lengthAdjust="spacing" textLength="43" x="28" y="95.0811">atime</text><text fill="#D9B8FF" font-family="sans-serif" font-size="14" lengthAdjust="spacing" textLength="70" x="71" y="95.0811">: datetime</text><text fill="#D9B8FF" font-family="sans-serif" font-size="14" font-weight="bold" lengthAdjust="spacing" textLength="43" x="28" y="121.3779">ctime</text><text fill="#D9B8FF" font-family="sans-serif" font-size="14" lengthAdjust="spacing" textLength="70" x="71" y="121.3779">: datetime</text><text fill="#D9B8FF" font-family="sans-serif" font-size="14" font-weight="bold" lengthAdjust="spacing" textLength="14" x="28" y="147.6748">id</text><text fill="#D9B8FF" font-family="sans-serif" font-size="14" lengthAdjust="spacing" textLength="48" x="42" y="147.6748">: string</text><text fill="#D9B8FF" font-family="sans-serif" font-size="14" font-weight="bold" lengthAdjust="spacing" textLength="33" x="28" y="173.9717">kind</text><text fill="#D9B8FF" font-family="sans-serif" font-size="14" lengthAdjust="spacing" textLength="48" x="61" y="173.9717">: string</text><text fill="#D9B8FF" font-family="sans-serif" font-size="14" font-weight="bold" lengthAdjust="spacing" textLength="90" x="28" y="200.2686">last_access</text><text fill="#D9B8FF" font-family="sans-serif" font-size="14" lengthAdjust="spacing" textLength="66" x="118" y="200.2686">: duration</text><text fill="#D9B8FF" font-family="sans-serif" font-size="14" font-weight="bold" lengthAdjust="spacing" textLength="90" x="28" y="226.5654">last_update</text><text fill="#D9B8FF" font-family="sans-serif" font-size="14" lengthAdjust="spacing" textLength="66" x="118" y="226.5654">: duration</text><text fill="#D9B8FF" font-family="sans-serif" font-size="14" font-weight="bold" lengthAdjust="spacing" textLength="48" x="28" y="252.8623">mtime</text><text fill="#D9B8FF" font-family="sans-serif" font-size="14" lengthAdjust="spacing" textLength="70" x="76" y="252.8623">: datetime</text><text fill="#D9B8FF" font-family="sans-serif" font-size="14" font-weight="bold" lengthAdjust="spacing" textLength="43" x="28" y="279.1592">name</text><text fill="#D9B8FF" font-family="sans-serif" font-size="14" lengthAdjust="spacing" textLength="48" x="71" y="279.1592">: string</text><text fill="#D9B8FF" font-family="sans-serif" font-size="14" font-weight="bold" lengthAdjust="spacing" textLength="34" x="28" y="305.4561">tags</text><text fill="#D9B8FF" font-family="sans-serif" font-size="14" lengthAdjust="spacing" textLength="171" x="62" y="305.4561">: dictionary[string, string]</text></g><!--reverse link aws_resource to aws_efs_mount_target--><g id="link_aws_resource_aws_efs_mount_target"><path codeLine="44" d="M130.5,531.13 C130.5,563.19 130.5,592.97 130.5,633.35 " fill="none" id="aws_resource-backto-aws_efs_mount_target" style="stroke:#FFAF37;stroke-width:2.0;"/><polygon fill="none" points="130.5,513.13,124.5,531.13,136.5,531.13,130.5,513.13" style="stroke:#FFAF37;stroke-width:2.0;"/></g><!--reverse link resource to aws_resource--><g id="link_resource_aws_resource"><path codeLine="45" d="M130.5,336.18 C130.5,381.21 130.5,408.34 130.5,438.51 " fill="none" id="resource-backto-aws_resource" style="stroke:#FFAF37;stroke-width:2.0;"/><polygon fill="none" points="130.5,318.18,124.5,336.18,136.5,336.18,130.5,318.18" style="stroke:#FFAF37;stroke-width:2.0;"/></g><!--SRC=[XP9FQzj04CNl-XGBkOaOx8RKSSabCPJs4ahJModBU7TMNYpjYjbHZDBsktTbEMNr9ybDlFVJp7iZxQr6WLNDhQYmsY65B1oigu6W4dT4_hZrfITnOGoOg_NO_EmTlmiyG8NY2vPFo5R1cFYnj-hWC0Jn8R7kGHqAyetJ_NWcS25Qw3YXjYM4SCTCTjSm9c7qPdTZp9WS3xsuqglrHvnWdZJI6Lakbtgr6IFlhdgpzt_YqJwZMAL7U_2CavYJ5IVgpPGTaOIS57tnNytu3RIshX3NYVQzpqGEQQ0_xa7xOqSRA4Ew9Z0IUcvht4vQuUP6c_Ki_FKrE5FTwGGSWqGJP1K9bWnK88lVMPx34zWIThQqtCfdxr2wM33FFyNX50D6nDOoLgFummtaqXgKgbKboi30mtVyCLQMLYVYtoHA7EORKjX783U33P7YD5ut16ozwnIsVKmTLtVFKLCpsY12diVJ3OMuYoKeTMwNR3WvJQtFrHAdcjapkHf3qK-qgdiDgFtPUvTdvbUiEhZ5xP_5OZ7xfR8PvaNA_W40]--></g></svg>

<svg xmlns="http://www.w3.org/2000/svg" width="261" height="793" viewBox="0 0 261 793"><rect width="247" height="152.977" x="7" y="633.84" fill="#3D176E" rx="2.5" ry="2.5" style="stroke:#000d19;stroke-width:.5"/><circle cx="28.3" cy="653.735" r="11" fill="#ADD1B2" style="stroke:#181818;stroke-width:1"/><path d="M31.269 659.375q-.578.297-1.219.438-.64.156-1.344.156-2.5 0-3.828-1.64-1.312-1.657-1.312-4.782t1.312-4.781q1.328-1.656 3.828-1.656.703 0 1.344.156.656.156 1.219.453v2.719q-.625-.578-1.219-.844-.594-.281-1.219-.281-1.343 0-2.031 1.078-.687 1.062-.687 3.156t.687 3.172q.688 1.062 2.031 1.062.625 0 1.219-.265.594-.281 1.219-.86z"/><text x="48.7" y="659.62" fill="#D9B8FF" font-family="Helvetica" font-size="17" textLength="191">aws_efs_mount_target</text><path d="M8 673.629h245" style="stroke:#000d19;stroke-width:.5"/><text x="18" y="695.624" fill="#D9B8FF" font-family="sans-serif" font-size="14" font-weight="bold" textLength="177">availability_zone_name</text><text x="195" y="695.624" fill="#D9B8FF" font-family="sans-serif" font-size="14" textLength="48">: string</text><text x="18" y="721.921" fill="#D9B8FF" font-family="sans-serif" font-size="14" font-weight="bold" textLength="85">ip_address</text><text x="103" y="721.921" fill="#D9B8FF" font-family="sans-serif" font-size="14" textLength="48">: string</text><text x="18" y="748.218" fill="#D9B8FF" font-family="sans-serif" font-size="14" font-weight="bold" textLength="119">life_cycle_state</text><text x="137" y="748.218" fill="#D9B8FF" font-family="sans-serif" font-size="14" textLength="48">: string</text><text x="18" y="774.515" fill="#D9B8FF" font-family="sans-serif" font-size="14" font-weight="bold" textLength="72">owner_id</text><text x="90" y="774.515" fill="#D9B8FF" font-family="sans-serif" font-size="14" textLength="48">: string</text><rect width="155" height="74.086" x="53" y="438.76" fill="#3D176E" rx="2.5" ry="2.5" style="stroke:#000d19;stroke-width:.5"/><circle cx="68" cy="458.654" r="11" fill="#ADD1B2" style="stroke:#181818;stroke-width:1"/><path d="M70.969 464.295q-.578.297-1.219.438-.64.156-1.344.156-2.5 0-3.828-1.64-1.312-1.657-1.312-4.782t1.312-4.781q1.328-1.656 3.828-1.656.703 0 1.344.156.656.156 1.219.453v2.719q-.625-.579-1.219-.844-.594-.281-1.219-.281-1.344 0-2.031 1.078-.687 1.062-.687 3.156t.687 3.172q.688 1.062 2.031 1.062.625 0 1.219-.265.594-.281 1.219-.86z"/><text x="87" y="464.54" fill="#D9B8FF" font-family="Helvetica" font-size="17" textLength="113">aws_resource</text><path d="M54 478.549h153" style="stroke:#000d19;stroke-width:.5"/><text x="64" y="500.544" fill="#D9B8FF" font-family="sans-serif" font-size="14" font-weight="bold" textLength="26">arn</text><text x="90" y="500.544" fill="#D9B8FF" font-family="sans-serif" font-size="14" textLength="48">: string</text><rect width="227" height="310.758" x="17" y="7" fill="#3D176E" rx="2.5" ry="2.5" style="stroke:#000d19;stroke-width:.5"/><circle cx="85.75" cy="26.895" r="11" fill="#ADD1B2" style="stroke:#181818;stroke-width:1"/><path d="M88.719 32.535q-.578.297-1.219.438-.64.156-1.344.156-2.5 0-3.828-1.64-1.312-1.657-1.312-4.782t1.312-4.781q1.328-1.656 3.828-1.656.703 0 1.344.156.656.156 1.219.453v2.719q-.625-.578-1.219-.844-.594-.281-1.219-.281-1.344 0-2.031 1.078-.687 1.062-.687 3.156t.687 3.172q.688 1.062 2.031 1.062.625 0 1.219-.265.594-.281 1.219-.86z"/><text x="111.25" y="32.78" fill="#D9B8FF" font-family="Helvetica" font-size="17" textLength="71">resource</text><path d="M18 46.789h225" style="stroke:#000d19;stroke-width:.5"/><text x="28" y="68.784" fill="#D9B8FF" font-family="sans-serif" font-size="14" font-weight="bold" textLength="29">age</text><text x="57" y="68.784" fill="#D9B8FF" font-family="sans-serif" font-size="14" textLength="66">: duration</text><text x="28" y="95.081" fill="#D9B8FF" font-family="sans-serif" font-size="14" font-weight="bold" textLength="43">atime</text><text x="71" y="95.081" fill="#D9B8FF" font-family="sans-serif" font-size="14" textLength="70">: datetime</text><text x="28" y="121.378" fill="#D9B8FF" font-family="sans-serif" font-size="14" font-weight="bold" textLength="43">ctime</text><text x="71" y="121.378" fill="#D9B8FF" font-family="sans-serif" font-size="14" textLength="70">: datetime</text><text x="28" y="147.675" fill="#D9B8FF" font-family="sans-serif" font-size="14" font-weight="bold" textLength="14">id</text><text x="42" y="147.675" fill="#D9B8FF" font-family="sans-serif" font-size="14" textLength="48">: string</text><text x="28" y="173.972" fill="#D9B8FF" font-family="sans-serif" font-size="14" font-weight="bold" textLength="33">kind</text><text x="61" y="173.972" fill="#D9B8FF" font-family="sans-serif" font-size="14" textLength="48">: string</text><text x="28" y="200.269" fill="#D9B8FF" font-family="sans-serif" font-size="14" font-weight="bold" textLength="90">last_access</text><text x="118" y="200.269" fill="#D9B8FF" font-family="sans-serif" font-size="14" textLength="66">: duration</text><text x="28" y="226.565" fill="#D9B8FF" font-family="sans-serif" font-size="14" font-weight="bold" textLength="90">last_update</text><text x="118" y="226.565" fill="#D9B8FF" font-family="sans-serif" font-size="14" textLength="66">: duration</text><text x="28" y="252.862" fill="#D9B8FF" font-family="sans-serif" font-size="14" font-weight="bold" textLength="48">mtime</text><text x="76" y="252.862" fill="#D9B8FF" font-family="sans-serif" font-size="14" textLength="70">: datetime</text><text x="28" y="279.159" fill="#D9B8FF" font-family="sans-serif" font-size="14" font-weight="bold" textLength="43">name</text><text x="71" y="279.159" fill="#D9B8FF" font-family="sans-serif" font-size="14" textLength="48">: string</text><text x="28" y="305.456" fill="#D9B8FF" font-family="sans-serif" font-size="14" font-weight="bold" textLength="34">tags</text><text x="62" y="305.456" fill="#D9B8FF" font-family="sans-serif" font-size="14" textLength="171">: dictionary[string, string]</text><path fill="none" d="M130.5 531.13v102.22m0-120.22-6 18h12zm0-176.95v102.33m0-120.33-6 18h12z" style="stroke:#ffaf37;stroke-width:2"/></svg>
